X: 4934
T: Breaking Storm, The
R: hornpipe
M: 4/4
K: Eminor
|:BA|GE ED E2 GA|Bd de d2 cB|AG BG cG BG|AG (3FGA D2 AB|
GE ED E2 GA|Bd (3^cde d2 =cB|AG BG cG BG|AG FA G2:|
|:Bd|ef gf eg fe|ed dB d2 ed|cB Ac BA GB|AG (3FGA D2 AB|
GE ED E2 GA|(3Bcd de d2 cB|AG BG cG BG|AG (3FGA G2:|

